build/img/message.svg

<svg width="30" height="30" viewBox="0 0 30 30" fill="none" xmlns="http://www.w3.org/2000/svg">
<circle opacity="0.1" cx="15" cy="15" r="15" fill="#9564AA"/>
<path fill-rule="evenodd" clip-rule="evenodd" d="M11 21.5362L15.0578 19H20.3333C21.0697 19 21.6666 18.4031 21.6666 17.6667V9.66671C21.6666 8.93033 21.0697 8.33337 20.3333 8.33337H9.66665C8.93027 8.33337 8.33331 8.93033 8.33331 9.66671V17.6667C8.33331 18.4031 8.93027 19 9.66665 19H11V21.5362ZM14.6754 17.6667L12.3333 19.1305V17.6667H9.66665V9.66671H20.3333V17.6667H14.6754ZM11.6666 15.6667V14.3334H16.3333V15.6667H11.6666ZM11.6666 11.6667V13H17.6666V11.6667H11.6666Z" fill="#9564AA"/>
</svg>

<svg width="30" height="30" fill="none" xmlns="http://www.w3.org/2000/svg"><circle opacity=".1" cx="15" cy="15" r="15" fill="#9564AA"/><path fill-rule="evenodd" clip-rule="evenodd" d="M11 21.536 15.058 19h5.275c.737 0 1.334-.597 1.334-1.333v-8c0-.737-.597-1.334-1.334-1.334H9.667c-.737 0-1.334.597-1.334 1.334v8c0 .736.597 1.333 1.334 1.333H11v2.536Zm3.675-3.87-2.342 1.465v-1.464H9.667v-8h10.666v8h-5.658Zm-3.008-2v-1.333h4.666v1.334h-4.666Zm0-4V13h6v-1.333h-6Z" fill="#9564AA"/></svg>
